file/komatsu.svg

<svg clip-rule="evenodd" fill-rule="evenodd" stroke-linejoin="round" stroke-miterlimit="1.41421" viewBox="0 0 560 400" xmlns="http://www.w3.org/2000/svg"><path d="m291.424 15.094h19.052v28.349s0 3.798 2.782 3.798c2.792 0 2.327-3.703 2.327-3.703v-28.349h19.506v30.719s0 18.3-21.548 18.3c-21.558 0-22.023-15.55-22.119-17.634zm-55.386 47.506h-19.517v-29.968h-10.959v-17.443h29.926v-14.989h18.215v18.586s7.426-5.787 16.259-5.12c8.822.666 15.972 4.453 16.533 5.511l-5.014 12.323s-8.822-4.548-11.34-3.892c-2.507.666-3.067 1.618-1.861 3.036 1.216 1.428 7.161 1.988 8.653 2.845 1.48.857 8.261 2.56 9.467 11.287 1.216 8.716-4.919 17.073-13.096 18.3s-18.956 1.227-27.513-5.405l5.119-12.609s7.246 4.263 10.959 4.643c3.713.37 5.3.476 5.765-1.237.466-1.703-2.507-2.74-4.548-3.131-2.042-.381-10.695-2.56-12.736-7.87-2.042-5.3-2.687-11.658 2.888-18.385h-17.2zm-161.686-49.876c-13.857 0-25.091 11.372-25.091 25.409s11.234 25.408 25.091 25.408 25.091-11.371 25.091-25.408-11.234-25.409-25.091-25.409zm43.212 49.59h-17.655l7.436-47.411h17.74l5.585 17.729 5.849-17.633h17.75l6.686 43.327 14.872-43.327h18.956l15.793 47.315h-19.696l-5.67-22.097-5.479 22.288h-36.05l-2.803-17.168-4.824 16.977h-10.969l-4.824-17.073zm-97.763-.571h-19.601v-47.316h19.601v22.098l9.764-22.098h22.118l-10.683 23.04 11.329 24.276h-22.204l-10.324-22.944zm54.361-16.967c-3.639 0-6.59-2.973-6.59-6.643 0-3.671 2.951-6.633 6.59-6.633 3.649 0 6.611 2.962 6.611 6.633 0 3.67-2.962 6.643-6.611 6.643z" fill="#283d99" fill-rule="nonzero" transform="matrix(1.40608 0 0 1.40608 44.2776 154.719)"/></svg>

<?xml version="1.0" encoding="UTF-8" standalone="no"?>
<!DOCTYPE svg PUBLIC "-//W3C//DTD SVG 1.1//EN" "http://www.w3.org/Graphics/SVG/1.1/DTD/svg11.dtd">
<svg width="100%" height="100%" viewBox="0 0 560 400" version="1.1" xmlns="http://www.w3.org/2000/svg" xmlns:xlink="http://www.w3.org/1999/xlink" xml:space="preserve" xmlns:serif="http://www.serif.com/" style="fill-rule:evenodd;clip-rule:evenodd;stroke-linejoin:round;stroke-miterlimit:1.41421;">
    <g transform="matrix(1.40608,0,0,1.40608,44.2776,154.719)">
        <g id="g4865">
            <path id="path4173" d="M291.424,15.094L310.476,15.094L310.476,43.443C310.476,43.443 310.476,47.241 313.258,47.241C316.05,47.241 315.585,43.538 315.585,43.538L315.585,15.189L335.091,15.189L335.091,45.908C335.091,45.908 335.091,64.208 313.543,64.208C291.985,64.208 291.52,48.658 291.424,46.574L291.424,15.094ZM236.038,62.6L216.521,62.6L216.521,32.632L205.562,32.632L205.562,15.189L235.488,15.189L235.488,0.2L253.703,0.2L253.703,18.786C253.703,18.786 261.129,12.999 269.962,13.666C278.784,14.332 285.934,18.119 286.495,19.177L281.481,31.5C281.481,31.5 272.659,26.952 270.141,27.608C267.634,28.274 267.074,29.226 268.28,30.644C269.496,32.072 275.441,32.632 276.933,33.489C278.413,34.346 285.194,36.049 286.4,44.776C287.616,53.492 281.481,61.849 273.304,63.076C265.127,64.303 254.348,64.303 245.791,57.671L250.91,45.062C250.91,45.062 258.156,49.325 261.869,49.705C265.582,50.075 267.169,50.181 267.634,48.468C268.1,46.765 265.127,45.728 263.086,45.337C261.044,44.956 252.391,42.777 250.35,37.467C248.308,32.167 247.663,25.809 253.238,19.082L236.038,19.082L236.038,62.6ZM74.352,12.724C60.495,12.724 49.261,24.096 49.261,38.133C49.261,52.17 60.495,63.541 74.352,63.541C88.209,63.541 99.443,52.17 99.443,38.133C99.443,24.096 88.209,12.724 74.352,12.724ZM117.564,62.314L99.909,62.314L107.345,14.903L125.085,14.903L130.67,32.632L136.519,14.999L154.269,14.999L160.955,58.326L175.827,14.999L194.783,14.999L210.576,62.314L190.88,62.314L185.21,40.217L179.731,62.505L143.681,62.505L140.878,45.337L136.054,62.314L125.085,62.314L120.261,45.241L117.564,62.314ZM19.801,61.743L0.2,61.743L0.2,14.427L19.801,14.427L19.801,36.525L29.565,14.427L51.683,14.427L41,37.467L52.329,61.743L30.125,61.743L19.801,38.799L19.801,61.743ZM74.162,44.776C70.523,44.776 67.572,41.803 67.572,38.133C67.572,34.462 70.523,31.5 74.162,31.5C77.811,31.5 80.773,34.462 80.773,38.133C80.773,41.803 77.811,44.776 74.162,44.776Z" style="fill:rgb(40,61,153);fill-rule:nonzero;"/>
        </g>
    </g>
</svg>
